X:1
T:A Marshmallow World
T:A Marshmallow World
T:SSA
T:Peter de Rose
T:Carl Sigman
C:Peter de Rose
Z:Carl Sigman
%%score 1 2 3 { ( 4 5 ) | 6 }
L:1/8
Q:1/4=110
M:4/4
K:C
V:1 treble nm="Sopraan" snm="Sop."
V:2 treble nm="Mezzo-sopraan" snm="Mz. S."
V:3 treble nm="Alt" snm="A."
V:4 treble nm="Piano" snm="Pno."
V:5 treble 
V:6 bass 
V:1
 z8 | z8 | z8 | z8"^Swing" | (c4 B4 | A4 B4) | (c4 B2) A2 | G4 z2 DE | F2 DD- D2 AB | %9
w: ||||Oo _|_ _|Oo _ _|_ It's a|time for play, _ it's a|
 c2 GG- G2 z c | ddcc B2 A2 | G4 z4 | z EGA G4 | z EGA G4 | z2 c2 B2 A2 | BAGG- G2 z2 | z4 z2 AB | %17
w: whipped- cream- day, _ I|wait for it the whole year|'round.|Marsh- mal- low clouds,|those friend- ly clouds,|arms of the|ev- er- green trees, _|like a|
 c2 GG- G2 z c | ddcc A2 B2 | c4 z2 z c |: _B_B c2 _B2 c2 | A_B c2 F2 z2 | GA _B2 E2 z2 | %23
w: pump- kin head. _ It's|shin- ing so your nose won't|freeze. The|world is your snow- ball,|see how it grows.|That's how it goes,|
 z4 z2 z d | cc d2 c2 d2 | Bc d2 G2 z B | d2 D2 DE ^F2 | G4 z4 | z EGA G4 | z EGA G4 | %30
w: The|world is your snow- ball,|just for a song. Get|out and roll it a-|long.|A yum- my world|for me and you.|
 z2 c2 B2 A2 | BAGG- G2 z2 | z4 z2 AB | c2 GG- G2 z c | ddcc A2 BG |1 c4 z2 z c :|2 c4 z2 z c || %37
w: Walk with your|fa- vor- ite girl. _|What if|spring is late? _ In|win- ter, it's a marsh- mal- low|world. The|world. In|
 ddcc A2 BG | c4 z2 z c | dd- d2 c2 c2 | A4 B2 G2 | z8 | c8 | z2 A2 B2 G2 | c8 | z2 A2 B2 G2 | c8 | %47
w: win- ter, it's a marsh- mal- low|world. In|win- ter, _ it's a|marsh- mal- low||world,|marsh- mal- low|world,|marsh- mal- low|world.|
 z4 z2 G2 | c8 | z8 |] %50
w: Let's|go!||
V:2
 z8 | z8 | z8 | z4 z2 GE | G2 GE G2 GE | GA- A2 z2 GE | G2 GE GE C2 | D4 z2 DE | F2 DD- D2 FF | %9
w: |||It's *|marsh- mal- low world in the|win- ter _ when the|snow comes to co- ver the|ground. It's a|time for play, _ it's a|
 G2 EE- E2 z E | AAAA B2 A2 | G4 z2 GE | G2 GE G2 GE | GA- A2 z2 GE | G2 GE GE C2 | B,4 z2 DE | %16
w: whipped- cream- day, _ I|wait for it the whole year|'round. Those are|marsh- mal- low clouds be- ing|friend- ly _ in the|arms of the ev- er- green|trees. And the|
 F2 DD- D2 FG | G2 EE- E2 z G | AAAA F2 G2 | G4 z2 z C |: GG G2 G2 G2 | EE E2 D2 z2 | z4 z2 z E | %23
w: sun is red, _ like a|pump- kin head. _ It's|shin- ing so your nose won't|freeze. The|world is your snow- ball,|see how it grows.|when-|
 FG A2 A2 z A | AA G2 ^F2 F2 | GG ^F2 E2 z E | D2 D2 DE ^F2 | G4 z2 GE | G2 GE G2 GE | %29
w: ev- er it snows. The|world is your snow- ball,|just for a song. Get|out and roll it a-|long. It's a|yum, yum- my world made for|
 GA- A2 z2 GE | G2 GE GE C2 | B,4 z2 DE | F2 DD- D2 FG | G2 EE- E2 z G | AAAA F2 GG |1 %35
w: sweet- hearts. * Take a|walk with your fa- vor- ite|girl. It's a|sug- ar date. _ What if|spring is late? _ In|win- ter, it's a marsh- mal- low|
 G4 z2 z C :|2 G4 z2 z G || AAAA F2 GG | G4 z2 z G | AA- A2 A2 A2 | F4 G2 G2 | z4 z2 GE | %42
w: world. The|world. In|win- ter, it's a marsh- mal- low|world. In|win- ter, _ it's a|marsh- mal- low|It's a|
 G2 GE G2 GE | GA- A2 z2 GE | G2 GE G2 GE | GA- A2 z2 GE | G2 GE G2 GE | GA- A2 z2 G2 | G8 | z8 |] %50
w: marsh- mal- low world in the|win- ter. _ It's a|marsh- mal- low world in the|win- ter. _ It's a|marsh- mal- low world in the|win- ter. _ Let's|go!||
V:3
 z8 | z8 | z8 | z4 z2 GE | G2 GE G2 GE | GA- A2 z2 GE | G2 GE GE C2 | B,4 z2 DE | F2 DD- D2 DD | %9
w: |||It's *|marsh- mal- low world in the|win- ter _ when the|snow comes to co- ver the|ground. It's a|time for play, _ it's a|
 E2 CC- C2 z E | ^FFFF F2 F2 | G4 z4 | C4 B,4 | A,4 B,4 | C4 z4 | z8 | z4 z2 FF | E2 CC- C2 z E | %18
w: whipped- cream- day, _ I|wait for it the whole year|'round.|Oo _|_ _|||like a|pump- kin head. _ It's|
 ^FFFF =F2 F2 | E4 z2 z C |: DD F2 E2 E2 | CC C2 A,2 z2 | DD D2 C2 z C | CC F2 F2 z F | %24
w: shin- ing so your nose won't|freeze. The|world is your snow- ball,|see how it grows.|That's how it goes, when-|ev- er it snows. The|
 EE E2 D2 D2 | DD D2 E2 z E | D2 D2 DE ^F2 | G4 z4 | (C4 B,4) | A,4 B,4 | C4 z4 | z8 | z4 z2 FF | %33
w: world is your snow- ball,|just for a song. Get|out and roll it a-|long.|Oo _|_ _|||What if|
 E2 CC- C2 z E | ^FFFF =F2 FF |1 E4 z2 z C :|2 E4 z2 z E || ^FFFF =F2 FF | E4 z2 z E | %39
w: spring is late? _ In|win- ter, it's a marsh- mal- low|world. The|world. In|win- ter, it's a marsh- mal- low|world. In|
 ^FF- F2 F2 F2 | =F4 F2 F2 | z8 | C4 B,4 | A,4 B,2 z2 | (C4 B,4) | A,4 B,2 z2 | (C4 B,4) | %47
w: win- ter, _ it's a|marsh- mal- low||Oo _|_ _|Oo _|_ _|Oo _|
 C4 z2 G2 | E8 | z8 |] %50
w: _ Let's|go!||
V:4
 dd c2 B2 A2 | GG =F2 E2 D2 | [CEG]2 [CEG]2 [B,EG]2 [B,EG]2 | [A,EG]2 [A,EG]2 [B,EG]2 [B,EG]2 | %4
 [CEG]2 [CEG]2 [B,EG]2 [B,EG]2 | [A,EG]2 [A,EG]2 [B,EG]2 [B,EG]2 | [CEG]2 [CEG]2 [B,EG]2 [B,EG]2 | %7
 [DFB]AG([Fd]- [Fd]2) DE | [A,CF]2 [A,CF]2 [B,DF]2 [B,DF]2 | [CEG]C [CEG]2 [CEGA]2 [EGAc]2 | %10
 d4 B2 A2 | [A,C=FG]A, [CF]2 [F,B,D]2 GE | [CEG]2 [CEG]2 [B,EG]2 [B,EG]2 | %13
 [A,EG]2 [A,EG]2 [B,EG]2 [B,EG]2 | [CEG]2 [CEG]2 [B,EG]2 [B,EG]2 | [DFB]AG([Fd]- [Fd]2) DE | %16
 [A,CF]2 [A,CF]2 [B,DF]2 [B,DF]2 | [CEG]C [CEG]2 [CEGA]2 [EGAc]2 | [^FAd]C [FAc]2 [C=FA]2 [DFGB]2 | %19
 [EGAc]de([Aceg]- [Aceg]2) z c |: [DF_B]2 [DFB]2 [EGBc]2 [EGBc]2 | [CEA]2 [CEA]2 [CDFA]2 [CDFA]2 | %22
 [DF_B]2 [DFB]2 [CEGB]2 [CEGB]2 | [CFA]2 [FAc]2 [FAcf]3 d | [EGAc]2 [EGAc]2 [D^FAc]2 [DFAc]2 | %25
 [D^FGB]2 [DFGB]2 [DEGB]2 [DEGB]2 | [EGAc]2 [EGAc]2 [D^FAc]2 [DFAc]2 | [D=FAc]AFD [B,DFG]2 GE | %28
 [CEG]2 [CEG]2 [B,EG]2 [B,EG]2 | [A,EG]2 [A,EG]2 [B,EG]2 [B,EG]2 | [CEG]2 [CEG]2 [B,EG]2 [B,EG]2 | %31
 [DFB]AG([Fd]- [Fd]2) DE | [A,CF]2 [A,CF]2 [B,DF]2 [B,DF]2 | [CEG]C [CEG]2 [CEGA]2 [EGAc]2 | %34
 [^FAd]C [FAc]2 [C=FA]2 [DFGB]2 |1 [EGA]de([Aceg]- [Aceg]2) z c :|2 %36
 [CEG]C [CEG]2 [CEGA]2 [EGAc]2 || [^FAd]C [FAc]2 [C=FA]2 [DFGB]2 | [CEG]C [CEG]2 [CEGA]2 [EGAc]2 | %39
 [^FAd] [FAd]2 C [FAc]2 [FAc]2 | [C=FA]4 [DFGB]2 [DFG]2 | z4 z2 GE | %42
 [CEG]2 [CEG]2 [B,EG]2 [B,EG]2 | [A,EG]2 [A,EG]2 [B,EG]2 [B,EG]2 | [CEG]2 [CEG]2 [B,EG]2 [B,EG]2 | %45
 [A,EG]2 [A,EG]2 [B,EG]2 [B,EG]2 | [CEG]2 [CEG]2 [B,EG]2 [B,EG]2 | %47
 [A,EG]2 [A,EG]2 [B,EG]2 [B,EG]2 | [G,A,CE]6 z2 | [egac']8 |] %50
V:5
 [^FA]4 [CF]4 | [A,C]4 [F,B,]4 | x8 | x8 | x8 | x8 | x8 | x8 | x8 | x8 | [^FAc]4 [CF]4 | x8 | x8 | %13
 x8 | x8 | x8 | x8 | x8 | x8 | x8 |: x8 | x8 | x8 | x8 | x8 | x8 | x8 | x8 | x8 | x8 | x8 | x8 | %32
 x8 | x8 | x8 |1 x8 :|2 x8 || x8 | x8 | x8 | x8 | x8 | x8 | x8 | x8 | x8 | x8 | x8 | x8 | x8 |] %50
V:6
 D,4 D,,4 | G,,4 G,,,4 | C,,3 C,, G,,3 G,, | C,,3 C,, G,,3 G,, | C,,3 C,, G,,3 G,, | %5
 C,,3 C,, G,,3 G,, | C,,3 C,, G,,3 C,, | G,,4- G,,D,, G,,,2 | D,,3 D,, G,,,3 G,,, | %9
 C,,2 B,,,2 A,,,2 A,,2 | D,2 A,,2 D,,4- | D,,3 D,, G,,2 G,,,2 | C,,3 C,, G,,3 G,, | %13
 C,,3 C,, G,,3 G,, | C,,3 C,, G,,3 C,, | G,,4- G,,D,, G,,,2 | D,,3 D,, G,,,3 G,,, | %17
 C,,2 B,,,2 A,,,2 A,,2 | D,,3 D, D,,2 G,,2 | C,,2 G,,2 C,2 C,,2 |: G,,3 G,, C,,3 C,, | %21
 F,,3 F,, D,,3 D,, | G,,3 G,, C,,3 C,, | F,,3 F,, F,,,2 F,,2 | A,,,3 A,,, D,,3 D,, | %25
 G,,3 G,, E,,3 E,, | A,,3 A,, D,,3 D,, | D,,3 D,, G,,2 G,,,2 | C,,3 C,, G,,3 G,, | %29
 C,,3 C,, G,,3 G,, | C,,3 C,, G,,3 C,, | G,,4- G,,D,, G,,,2 | D,,3 D,, G,,,3 G,,, | %33
 C,,2 B,,,2 A,,,2 A,,2 | D,,3 D, D,,2 G,,2 |1 C,,2 G,,2 C,2 C,,2 :|2 C,,2 B,,,2 A,,,2 A,,2 || %37
 D,,3 D, D,,2 G,,2 | C,,2 B,,,2 A,,,2 A,,2 | D,,2 D,2 D,,3 D, | G,,2 D,,2 G,,,4 | %41
 F,,E,,D,,C,, B,,,A,,, G,,,2 | C,,3 C,, G,,3 G,, | C,,3 C,, G,,3 G,, | C,,3 C,, G,,3 G,, | %45
 C,,3 C,, G,,3 G,, | C,,3 C,, G,,3 G,, | C,,3 C,, G,,4 | C,6 G,,2 | C,,8 |] %50

